src/sources/forus-platform/resources/_platform-common/assets/img/features/icons/iconnect-api/icon-3.svg

<svg width="59" height="58" viewBox="0 0 59 58" fill="none" xmlns="http://www.w3.org/2000/svg">
    <rect x="0.5" width="58" height="58" rx="8" fill="#F7F9FC"/>
    <path opacity="0.2" d="M29.3515 43C36.0501 43 41.4804 41.6548 41.4804 39.9954C41.4804 38.3359 36.0501 36.9907 29.3515 36.9907C22.6529 36.9907 17.2227 38.3359 17.2227 39.9954C17.2227 41.6548 22.6529 43 29.3515 43Z" fill="#2E3242"/>
    <path d="M18.3159 23.9792C18.1634 23.9792 18.0362 23.9282 17.8836 23.8518C17.5531 23.6227 14.5018 21.5347 14.5018 19.1412C14.5018 18.9884 14.5018 18.8611 14.5272 18.7338C13.7898 18.1227 13.4338 17.1805 13.5101 16.0347C13.5356 15.6018 13.8915 15.2963 14.3238 15.3217C14.7561 15.3472 15.0612 15.7037 15.0358 16.1365C15.0104 16.4166 15.0358 16.6713 15.0866 16.9004C15.468 16.2893 15.9766 15.9074 16.4851 15.7546C17.3242 15.4745 18.1888 15.7291 18.6973 16.3912C19.2059 17.0787 19.2567 17.868 18.799 18.4791C18.2651 19.1921 17.1463 19.5231 16.0783 19.3958C16.3071 20.669 18.1125 22.1458 18.7736 22.5787C19.1296 22.8079 19.2059 23.2917 18.977 23.6481C18.799 23.8773 18.5702 23.9792 18.3159 23.9792ZM16.2817 17.8935C16.8411 17.9699 17.4005 17.7916 17.5531 17.5879C17.5785 17.5625 17.6039 17.5116 17.4514 17.3333C17.2988 17.1296 17.0445 17.1805 16.9428 17.2315C16.714 17.2824 16.4597 17.5116 16.2817 17.8935Z" fill="#092DAA"/>
    <path d="M43.7429 24.9212H42.3698C42.0392 22.8332 40.9204 20.9235 39.2168 19.4212L39.4456 15.7545L36.3689 17.5115C34.3602 16.5184 31.97 15.9328 29.4018 15.9328C22.155 15.9073 16.2812 20.5161 16.2812 26.1943C16.2812 29.3772 18.112 32.2036 20.9853 34.0879L20.4768 35.412C19.9174 36.8633 20.6548 38.4675 22.0787 39.0277C23.5281 39.5879 25.13 38.8495 25.6894 37.4235L26.1725 36.1758C27.1896 36.3795 28.2576 36.4814 29.351 36.4814C30.3935 36.4814 31.4106 36.3795 32.4022 36.2013L32.8854 37.4235C33.4448 38.8749 35.0467 39.5879 36.4961 39.0277C37.9454 38.4675 38.6574 36.8633 38.098 35.412L37.6403 34.1643C39.0388 33.2731 40.2085 32.1527 41.0476 30.8541H43.7429C44.3023 30.8541 44.76 30.3957 44.76 29.8356V25.9397C44.76 25.3795 44.3023 24.9212 43.7429 24.9212Z" fill="#305DFC"/>
    <path d="M32.5294 17.0277C34.055 17.0277 35.5298 17.1804 36.9283 17.486C34.8178 16.3911 32.2497 15.7545 29.5035 15.7545C22.2058 15.7545 16.2812 20.2615 16.2812 25.8124C16.2812 26.1689 16.3067 26.4999 16.3575 26.8564C18.0357 21.2291 24.6214 17.0277 32.5294 17.0277Z" fill="#6892FF"/>
    <g opacity="0.2">
        <path opacity="0.2" d="M40.8696 31.1088C37.386 32.5602 34.589 33.0694 29.6306 32.8148C22.8161 32.4583 17.2475 28.6134 16.8152 23.2916C16.4847 24.2083 16.2812 25.1759 16.2812 26.1944C16.2812 29.3773 18.112 32.2037 20.9853 34.0879L20.4768 35.412C19.9174 36.8634 20.6548 38.4676 22.0787 39.0278C23.5281 39.5879 25.13 38.8495 25.6894 37.4236L26.1725 36.1759C27.1896 36.3796 28.2576 36.4815 29.3509 36.4815C30.3935 36.4815 31.4106 36.3796 32.4022 36.2014L32.8854 37.4236C33.4448 38.875 35.0467 39.5879 36.4961 39.0278C37.9454 38.4676 38.6574 36.8634 38.098 35.412L37.6403 34.1643C38.9625 33.324 40.0559 32.2801 40.8696 31.1088Z" fill="#092DAA"/>
        <path opacity="0.2" d="M40.6914 30.5231L43.7427 30.8541C44.3021 30.8541 44.7598 30.3958 44.7598 29.8356V28.9953H41.4542C41.4542 28.9953 41.1745 30.3448 40.6914 30.5231Z" fill="#092DAA"/>
    </g>
    <path d="M25.4355 19.3194C26.6561 18.912 27.9783 18.6829 29.3768 18.6829C30.6736 18.6829 31.9195 18.8866 33.0638 19.243" fill="#305DFC"/>
    <path d="M25.4351 20.0832C25.1046 20.0832 24.8249 19.8795 24.7232 19.574C24.596 19.1666 24.7995 18.7337 25.2063 18.6064C26.5285 18.148 27.927 17.9443 29.4018 17.9443C30.7495 17.9443 32.0717 18.148 33.3177 18.53C33.7245 18.6573 33.9533 19.0902 33.8262 19.4976C33.6991 19.905 33.2668 20.1342 32.86 20.0068C31.7666 19.6758 30.5969 19.4976 29.4018 19.4976C28.105 19.4976 26.8591 19.7013 25.7148 20.0832C25.6131 20.0832 25.5114 20.0832 25.4351 20.0832Z" fill="#092DAA"/>
    <path d="M37.7673 25.6852C38.3992 25.6852 38.9115 25.1722 38.9115 24.5393C38.9115 23.9065 38.3992 23.3935 37.7673 23.3935C37.1353 23.3935 36.623 23.9065 36.623 24.5393C36.623 25.1722 37.1353 25.6852 37.7673 25.6852Z" fill="#092DAA"/>
    <path d="M29.1218 36.6342C28.8421 36.6342 28.6133 36.405 28.6133 36.125C28.6133 35.8449 28.8421 35.6157 29.1218 35.6157C31.0797 35.6157 32.9359 35.2592 34.665 34.5972C34.9193 34.4953 35.2244 34.6226 35.3261 34.8773C35.4278 35.1319 35.3007 35.4374 35.0464 35.5393C33.1902 36.2523 31.2069 36.6342 29.1218 36.6342Z" fill="#092DAA"/>
    <path d="M23.91 35.6157C23.8592 35.6157 23.8083 35.6157 23.732 35.5903C22.2572 35.081 20.935 34.3426 19.7654 33.4514C19.5365 33.2731 19.5111 32.9676 19.6891 32.7384C19.8671 32.5092 20.1722 32.4838 20.401 32.662C21.469 33.5023 22.7149 34.1643 24.0626 34.6481C24.3169 34.75 24.4694 35.0301 24.3677 35.3102C24.3169 35.4884 24.1389 35.6157 23.91 35.6157Z" fill="#092DAA"/>
    <path d="M35.5055 39.9699C35.0224 39.9699 34.5138 39.868 34.0561 39.6643C33.1916 39.2824 32.5305 38.5694 32.1745 37.6782L31.9202 37.0162C30.1657 37.2708 28.3858 37.2708 26.6567 36.9907L26.4025 37.6527C26.0719 38.5439 25.3854 39.2569 24.5208 39.6389C23.6563 40.0208 22.6901 40.0463 21.8001 39.7152C20.9101 39.3842 20.1982 38.6967 19.8168 37.831C19.4354 36.9652 19.4099 35.9976 19.7405 35.1064L20.0202 34.3425C17.1723 32.28 15.5195 29.3263 15.5195 26.1944C15.5195 20.1087 21.7238 15.1689 29.3775 15.1689C31.8185 15.1689 34.2087 15.6782 36.3192 16.6458L39.0908 15.0925C39.345 14.9652 39.6247 14.9652 39.879 15.118C40.1079 15.2708 40.2604 15.5254 40.235 15.8055L40.0316 19.1157C41.5572 20.5671 42.5743 22.2985 43.0066 24.1573H43.744C44.2271 24.1573 44.6594 24.3356 44.9899 24.6921C45.3205 25.0231 45.5239 25.4814 45.4985 25.9652V29.8611C45.4985 30.8541 44.7102 31.6435 43.7186 31.6435H41.4555C40.6927 32.7129 39.7264 33.655 38.5822 34.4699L38.8365 35.1574C39.167 36.0486 39.1416 37.0162 38.7602 37.8819C38.3788 38.7476 37.6668 39.4097 36.7769 39.7662C36.37 39.8935 35.9378 39.9699 35.5055 39.9699ZM32.4288 35.412C32.7339 35.412 33.0136 35.5902 33.1407 35.8958L33.6239 37.118C33.8273 37.6273 34.2087 38.0347 34.6918 38.2384C35.2004 38.4676 35.7343 38.4676 36.2429 38.2893C36.7514 38.0856 37.1583 37.7037 37.3617 37.2199C37.5905 36.7106 37.5905 36.1759 37.4125 35.6666L36.9294 34.4189C36.8023 34.0879 36.9294 33.706 37.2346 33.5023C38.5568 32.662 39.6247 31.618 40.413 30.4212C40.5656 30.2175 40.7944 30.0648 41.0487 30.0648H43.744C43.8965 30.0648 43.9983 29.9629 43.9983 29.8101V25.9398C43.9983 25.8379 43.9474 25.787 43.922 25.7615C43.8965 25.7361 43.8457 25.6851 43.744 25.6851H42.3709C41.9895 25.6851 41.6844 25.405 41.6081 25.0486C41.3029 23.1898 40.3113 21.4328 38.7093 20.0069C38.5314 19.8541 38.4296 19.6249 38.4551 19.3958L38.6076 17.1296L36.726 18.199C36.4972 18.3263 36.2429 18.3263 36.014 18.2245C34.0307 17.2314 31.7422 16.7222 29.3775 16.7222C22.5884 16.6712 17.0452 20.949 17.0452 26.1944C17.0452 28.9953 18.6471 31.618 21.4187 33.4513C21.7238 33.655 21.851 34.037 21.7238 34.368L21.2153 35.6921C21.0119 36.2013 21.0373 36.7615 21.2661 37.2453C21.495 37.7291 21.8764 38.1111 22.3849 38.3148C22.8935 38.5185 23.4529 38.493 23.936 38.2639C24.4446 38.0347 24.8005 37.6527 25.004 37.1435L25.4871 35.8958C25.6142 35.5393 25.9702 35.3356 26.3516 35.412C28.2841 35.7939 30.3183 35.7939 32.3016 35.4375C32.3271 35.412 32.3779 35.412 32.4288 35.412Z" fill="#092DAA"/>
    <path d="M32.8011 29.2801C32.4545 29.2801 32.3101 29.488 32.0502 29.6811C31.4726 30.1415 30.9527 30.3346 30.274 30.3346C29.0465 30.3346 28.0934 29.6514 27.6313 28.5078H30.1295C30.4617 28.5078 30.7361 28.2404 30.7361 27.8988C30.7361 27.5424 30.4617 27.2751 30.1295 27.2751H27.328C27.3136 27.0968 27.2991 26.9038 27.2991 26.7107C27.2991 26.5325 27.3136 26.3691 27.328 26.2057H30.7505C31.0971 26.2057 31.357 25.9384 31.357 25.5819C31.357 25.2403 31.0971 24.973 30.7505 24.973H27.6024C28.0645 23.7997 29.0176 23.0868 30.274 23.0868C30.9671 23.0868 31.5014 23.2799 32.0502 23.7403C32.3101 23.9334 32.4545 24.1413 32.8011 24.1413C33.1621 24.1413 33.451 23.8146 33.451 23.4284C33.451 23.2205 33.3788 23.0423 33.1766 22.8343C32.4545 22.0769 31.4003 21.6462 30.2162 21.6462C28.1223 21.6462 26.5193 22.9532 25.9417 24.973H25.0174C24.6853 24.973 24.4109 25.2403 24.4109 25.5819C24.4109 25.9384 24.6853 26.2057 25.0174 26.2057H25.7251C25.7106 26.3691 25.7106 26.5325 25.7106 26.7107C25.7106 26.9038 25.7251 27.0968 25.7395 27.2751H25.003C24.6564 27.2751 24.3965 27.5424 24.3965 27.8988C24.3965 28.2404 24.6564 28.5078 25.003 28.5078H25.9705C26.5626 30.4831 28.1656 31.7752 30.2162 31.7752C31.4003 31.7752 32.4545 31.3445 33.1766 30.587C33.3788 30.3791 33.451 30.2009 33.451 29.993C33.451 29.6068 33.1621 29.2801 32.8011 29.2801Z" fill="white"/>
</svg>

<svg width="59" height="58" fill="none" xmlns="http://www.w3.org/2000/svg"><rect x=".5" width="58" height="58" rx="8" fill="#F7F9FC"/><path opacity=".2" d="M29.352 43c6.698 0 12.128-1.345 12.128-3.005s-5.43-3.004-12.128-3.004c-6.7 0-12.13 1.345-12.13 3.004 0 1.66 5.43 3.005 12.13 3.005Z" fill="#2E3242"/><path d="M18.316 23.98c-.153 0-.28-.052-.432-.128-.33-.23-3.382-2.317-3.382-4.71 0-.154 0-.28.025-.408-.737-.611-1.093-1.554-1.017-2.7a.752.752 0 0 1 .814-.712.752.752 0 0 1 .712.815c-.026.28 0 .534.05.763.382-.61.89-.993 1.4-1.145.838-.28 1.703-.026 2.211.636.509.688.56 1.477.102 2.088-.534.713-1.653 1.044-2.72.917.228 1.273 2.034 2.75 2.695 3.183.356.229.432.713.203 1.07a.806.806 0 0 1-.661.33Zm-2.034-6.087c.56.077 1.119-.101 1.271-.305.025-.026.05-.076-.102-.255-.152-.203-.407-.152-.508-.101-.229.05-.483.28-.661.662Z" fill="#092DAA"/><path d="M43.743 24.921H42.37c-.33-2.088-1.45-3.997-3.153-5.5l.229-3.666-3.077 1.757c-2.009-.994-4.399-1.58-6.967-1.58-7.247-.025-13.12 4.584-13.12 10.262 0 3.183 1.83 6.01 4.703 7.894l-.508 1.324c-.56 1.451.178 3.056 1.602 3.616 1.45.56 3.051-.178 3.61-1.605l.483-1.247c1.018.203 2.086.305 3.179.305 1.043 0 2.06-.102 3.051-.28l.483 1.222a2.778 2.778 0 0 0 3.611 1.605 2.784 2.784 0 0 0 1.602-3.616l-.458-1.248c1.399-.89 2.569-2.011 3.408-3.31h2.695a1.02 1.02 0 0 0 1.017-1.018V25.94a1.02 1.02 0 0 0-1.017-1.019Z" fill="#305DFC"/><path d="M32.53 17.028c1.525 0 3 .152 4.398.458-2.11-1.095-4.678-1.732-7.424-1.732-7.298 0-13.223 4.508-13.223 10.058 0 .357.026.688.077 1.044 1.678-5.627 8.263-9.828 16.171-9.828Z" fill="#6892FF"/><g opacity=".2" fill="#092DAA"><path opacity=".2" d="M40.87 31.109c-3.484 1.451-6.281 1.96-11.24 1.706-6.814-.357-12.383-4.202-12.815-9.523-.33.916-.534 1.884-.534 2.902 0 3.183 1.831 6.01 4.704 7.894l-.508 1.324c-.56 1.451.178 3.056 1.602 3.616 1.45.56 3.051-.178 3.61-1.604l.483-1.248c1.018.204 2.086.305 3.179.305 1.043 0 2.06-.101 3.051-.28l.483 1.223a2.778 2.778 0 0 0 3.611 1.604 2.784 2.784 0 0 0 1.602-3.616l-.458-1.248c1.322-.84 2.416-1.884 3.23-3.055ZM40.691 30.523l3.052.331a1.02 1.02 0 0 0 1.017-1.018v-.84h-3.306s-.28 1.349-.763 1.527Z"/></g><path d="M25.436 19.32a12.415 12.415 0 0 1 3.94-.637c1.298 0 2.543.204 3.688.56" fill="#305DFC"/><path d="M25.435 20.083a.74.74 0 0 1-.712-.509c-.127-.407.076-.84.483-.968 1.323-.458 2.721-.662 4.196-.662 1.348 0 2.67.204 3.916.586a.774.774 0 0 1-.458 1.477 11.962 11.962 0 0 0-3.458-.51c-1.297 0-2.543.204-3.687.586h-.28ZM37.767 25.685a1.145 1.145 0 1 0-.001-2.29 1.145 1.145 0 0 0 .001 2.29ZM29.122 36.634a.51.51 0 0 1 0-1.018c1.958 0 3.814-.357 5.543-1.019a.516.516 0 0 1 .661.28.517.517 0 0 1-.28.662 16.428 16.428 0 0 1-5.924 1.095ZM23.91 35.616c-.05 0-.102 0-.178-.026a14.161 14.161 0 0 1-3.967-2.139c-.229-.178-.254-.483-.076-.713.178-.229.483-.254.712-.076 1.068.84 2.314 1.502 3.662 1.986a.52.52 0 0 1 .305.662c-.051.178-.23.306-.458.306Z" fill="#092DAA"/><path d="M35.505 39.97c-.483 0-.991-.102-1.449-.306-.864-.382-1.525-1.095-1.881-1.986l-.255-.662a17.368 17.368 0 0 1-5.263-.025l-.255.662a3.52 3.52 0 0 1-1.881 1.986 3.595 3.595 0 0 1-2.72.076 3.519 3.519 0 0 1-1.984-1.884 3.61 3.61 0 0 1-.076-2.725l.28-.764c-2.849-2.062-4.502-5.016-4.502-8.148 0-6.085 6.205-11.025 13.859-11.025 2.44 0 4.83.51 6.941 1.477l2.772-1.554a.793.793 0 0 1 .788.026c.229.153.381.407.356.688l-.203 3.31c1.525 1.451 2.542 3.183 2.975 5.041h.737c.483 0 .915.179 1.246.535.33.331.534.79.508 1.273v3.896a1.77 1.77 0 0 1-1.78 1.782h-2.263c-.762 1.07-1.729 2.012-2.873 2.827l.255.687a3.61 3.61 0 0 1-.077 2.725c-.381.866-1.093 1.528-1.983 1.884-.407.128-.84.204-1.272.204Zm-3.076-4.558c.305 0 .585.178.712.484l.483 1.222c.203.51.585.917 1.068 1.12.508.23 1.042.23 1.55.051a2.01 2.01 0 0 0 1.12-1.07c.228-.508.228-1.043.05-1.552l-.483-1.248a.775.775 0 0 1 .306-.917c1.322-.84 2.39-1.884 3.178-3.08.153-.204.381-.357.636-.357h2.695c.153 0 .254-.102.254-.255v-3.87c0-.102-.05-.153-.076-.178-.025-.026-.076-.077-.178-.077h-1.373a.79.79 0 0 1-.763-.636c-.305-1.86-1.297-3.616-2.899-5.042a.713.713 0 0 1-.254-.611l.153-2.266-1.882 1.069a.782.782 0 0 1-.712.025c-1.983-.993-4.272-1.502-6.637-1.502-6.789-.05-12.332 4.227-12.332 9.472 0 2.801 1.602 5.424 4.374 7.257a.775.775 0 0 1 .305.917l-.509 1.324c-.203.51-.178 1.07.051 1.553.229.484.61.866 1.119 1.07a1.934 1.934 0 0 0 1.551-.051c.509-.23.864-.611 1.068-1.12l.483-1.248a.746.746 0 0 1 .865-.484c1.932.382 3.966.382 5.95.026.025-.026.076-.026.127-.026Z" fill="#092DAA"/><path d="M32.801 29.28c-.346 0-.49.208-.75.401-.578.46-1.098.654-1.777.654-1.227 0-2.18-.684-2.643-1.827h2.498a.606.606 0 0 0 .607-.61.61.61 0 0 0-.607-.623h-2.801a7.033 7.033 0 0 1-.029-.564c0-.178.015-.342.029-.505h3.422c.347 0 .607-.268.607-.624a.597.597 0 0 0-.607-.609h-3.148c.462-1.173 1.416-1.886 2.672-1.886.693 0 1.227.193 1.776.653.26.193.405.401.751.401.361 0 .65-.326.65-.713 0-.207-.072-.386-.274-.594-.722-.757-1.777-1.188-2.96-1.188-2.095 0-3.698 1.307-4.275 3.327h-.925a.606.606 0 0 0-.606.609.61.61 0 0 0 .606.624h.708c-.014.163-.014.326-.014.505 0 .193.014.386.029.564h-.737c-.347 0-.607.267-.607.624 0 .341.26.609.607.609h.968c.592 1.975 2.195 3.267 4.245 3.267 1.184 0 2.239-.43 2.96-1.188.203-.208.275-.386.275-.594 0-.386-.289-.713-.65-.713Z" fill="#fff"/></svg>
